X:60
M:C|
L:1/8
K:D
d/d/d df|
|:afdf agfd|gafg e/e/e fg|afdf abaf|geaf d/d/d df/g/|afdf dAFD|

